icons/lunacy-filled.svg

<svg width="256" height="256" viewBox="0 0 256 256" fill="none" xmlns="http://www.w3.org/2000/svg">
<path d="M196 0H60C26.8629 0 0 26.8629 0 60V196C0 229.137 26.8629 256 60 256H196C229.137 256 256 229.137 256 196V60C256 26.8629 229.137 0 196 0Z" fill="#179DE3"/>
<path d="M193.628 91.0465C182.773 87.0183 174.214 78.459 170.186 67.6046C166.155 78.4538 157.594 87.018 146.744 91.0465C157.595 95.0803 166.152 103.638 170.186 114.488C174.214 103.638 182.779 95.0777 193.628 91.0465Z" fill="white"/>
<path d="M128.789 68.2486H69.5394V186.749L188.014 186.751V127.501L128.789 186.726V68.2486Z" fill="white"/>
</svg>

<svg xmlns="http://www.w3.org/2000/svg" width="256" height="256" fill="none"><path fill="#179DE3" d="M196 0H60C26.863 0 0 26.863 0 60v136c0 33.137 26.863 60 60 60h136c33.137 0 60-26.863 60-60V60c0-33.137-26.863-60-60-60"/><path fill="#fff" d="M193.628 91.047a39.76 39.76 0 0 1-23.442-23.442 39.8 39.8 0 0 1-23.442 23.441 39.8 39.8 0 0 1 23.442 23.442 39.8 39.8 0 0 1 23.442-23.442"/><path fill="#fff" d="M128.789 68.249h-59.25v118.5l118.475.002v-59.25l-59.225 59.225z"/></svg>
